apps/spreadsheeteditor/main/resources/img/toolbar/2.5x/big/btn-ins-formula.svg

<svg width="28" height="28" viewBox="0 0 28 28" fill="none" xmlns="http://www.w3.org/2000/svg">
<path d="M14.5184 10.2242L14.3406 10.8616H12.8991L11.8129 15.0815C11.3324 16.9421 10.8486 18.3809 10.3615 19.3981C9.67032 20.8337 8.92649 21.8251 8.13001 22.3723C7.52441 22.7908 6.91882 23 6.31322 23C5.91827 23 5.58256 22.8841 5.30609 22.6524C5.10203 22.4914 5 22.2822 5 22.0247C5 21.8187 5.08557 21.6384 5.25672 21.4839C5.42128 21.3358 5.62534 21.2618 5.8689 21.2618C6.04663 21.2618 6.19803 21.3165 6.32309 21.426C6.44158 21.5354 6.50082 21.6609 6.50082 21.8026C6.50082 21.9442 6.43171 22.0762 6.29347 22.1985C6.18815 22.2886 6.13549 22.3562 6.13549 22.4013C6.13549 22.4592 6.15853 22.5043 6.20461 22.5365C6.26385 22.5815 6.35601 22.6041 6.48108 22.6041C6.76412 22.6041 7.06363 22.5172 7.37959 22.3433C7.68897 22.1695 7.96544 21.9088 8.209 21.5612C8.45255 21.22 8.68294 20.7242 8.90016 20.074C8.99232 19.8036 9.23917 18.912 9.6407 17.3991L11.3587 10.8616H9.6407L9.77894 10.2242C10.3253 10.2242 10.7071 10.1888 10.9243 10.118C11.1415 10.0408 11.339 9.89914 11.5167 9.69313C11.701 9.48069 11.938 9.08798 12.2276 8.51502C12.616 7.74249 12.9879 7.14378 13.3434 6.71888C13.8305 6.14592 14.3406 5.71781 14.8738 5.43455C15.4136 5.14485 15.9205 5 16.3944 5C16.8947 5 17.2962 5.12554 17.599 5.37661C17.9018 5.62124 18.0532 5.88841 18.0532 6.17811C18.0532 6.40343 17.9775 6.59335 17.8261 6.74785C17.6747 6.90236 17.4805 6.97961 17.2436 6.97961C17.0395 6.97961 16.8716 6.92167 16.74 6.80579C16.6149 6.68991 16.5524 6.5515 16.5524 6.39056C16.5524 6.28755 16.5952 6.16202 16.6807 6.01395C16.7663 5.85944 16.8091 5.75644 16.8091 5.70494C16.8091 5.61481 16.7795 5.54721 16.7202 5.50215C16.6347 5.43777 16.5096 5.40558 16.345 5.40558C15.9303 5.40558 15.5584 5.53433 15.2293 5.79185C14.7883 6.13305 14.3933 6.66738 14.0444 7.39485C13.8667 7.77468 13.5409 8.71781 13.0669 10.2242H14.5184Z" fill="black"/>
<path d="M17.6583 9.99249C17.9808 10.3273 18.2244 10.662 18.3889 10.9968C18.5074 11.2285 18.7016 11.8369 18.9715 12.8219L19.8404 11.5472C20.0708 11.2382 20.3505 10.9453 20.6796 10.6685C21.0088 10.3852 21.2984 10.1921 21.5485 10.0891C21.7065 10.0247 21.881 9.99249 22.0719 9.99249C22.3549 9.99249 22.5787 10.0665 22.7433 10.2146C22.9144 10.3627 23 10.5429 23 10.7554C23 11 22.9506 11.1674 22.8519 11.2575C22.6676 11.4185 22.4569 11.4989 22.22 11.4989C22.0817 11.4989 21.9336 11.47 21.7756 11.412C21.4663 11.309 21.2589 11.2575 21.1536 11.2575C20.9956 11.2575 20.808 11.3476 20.5908 11.5279C20.1827 11.8627 19.6956 12.5097 19.1295 13.4689L19.9391 16.7908C20.0642 17.2994 20.1695 17.6052 20.2551 17.7082C20.3406 17.8047 20.4262 17.853 20.5118 17.853C20.65 17.853 20.8113 17.779 20.9956 17.6309C21.3577 17.3348 21.667 16.9485 21.9238 16.4721L22.2693 16.6459C21.8546 17.4056 21.328 18.0365 20.6895 18.5386C20.3275 18.8219 20.0214 18.9635 19.7713 18.9635C19.4026 18.9635 19.1097 18.7607 18.8925 18.3552C18.7543 18.1041 18.4679 17.0225 18.0335 15.1105C17.0066 16.8552 16.1838 17.9785 15.565 18.4807C15.1635 18.8026 14.7751 18.9635 14.3999 18.9635C14.1366 18.9635 13.8963 18.8702 13.6791 18.6835C13.5211 18.5418 13.4421 18.3519 13.4421 18.1137C13.4421 17.9013 13.5145 17.7242 13.6594 17.5826C13.8042 17.441 13.9819 17.3702 14.1925 17.3702C14.4032 17.3702 14.627 17.4732 14.864 17.6792C15.0351 17.8273 15.1668 17.9013 15.2589 17.9013C15.3379 17.9013 15.4399 17.8498 15.565 17.7468C15.8744 17.5021 16.2957 16.9742 16.8289 16.1631C17.362 15.3519 17.7109 14.7661 17.8755 14.4056C17.4674 12.8412 17.2468 12.0139 17.2139 11.9238C17.0625 11.5054 16.8651 11.2092 16.6215 11.0354C16.3779 10.8616 16.0192 10.7747 15.5453 10.7747C15.3939 10.7747 15.2194 10.7811 15.0219 10.794V10.4464L17.6583 9.99249Z" fill="black"/>
</svg>

<svg xmlns="http://www.w3.org/2000/svg" width="28" height="28" fill="none"><path fill="#000" d="m14.518 10.224-.177.638h-1.442l-1.086 4.22c-.48 1.86-.964 3.299-1.452 4.316-.69 1.436-1.435 2.427-2.231 2.974-.606.419-1.211.628-1.817.628-.395 0-.73-.116-1.007-.348A.763.763 0 0 1 5 22.025c0-.206.086-.387.257-.541a.881.881 0 0 1 .612-.222c.178 0 .329.055.454.164a.5.5 0 0 1 .178.377c0 .141-.07.273-.208.395-.105.09-.158.158-.158.203 0 .058.024.103.07.136.059.044.151.067.276.067.283 0 .583-.087.899-.26a2.57 2.57 0 0 0 .829-.783c.244-.341.474-.837.691-1.487.092-.27.34-1.162.74-2.675l1.719-6.537H9.64l.138-.638c.546 0 .928-.035 1.145-.106.218-.077.415-.219.593-.425.184-.212.421-.605.71-1.178.389-.773.76-1.371 1.116-1.796.488-.573.998-1.001 1.53-1.284.54-.29 1.048-.435 1.521-.435.5 0 .902.126 1.205.377.303.244.454.511.454.801a.783.783 0 0 1-.81.802.734.734 0 0 1-.503-.174.547.547 0 0 1-.188-.415c0-.103.043-.229.129-.377.085-.155.128-.258.128-.31 0-.09-.03-.157-.089-.202-.085-.064-.21-.096-.375-.096a1.76 1.76 0 0 0-1.116.386c-.44.341-.836.875-1.185 1.603-.177.38-.503 1.323-.977 2.83h1.451Z"/><path fill="#000" d="M17.658 9.992c.323.335.566.67.73 1.005.12.232.314.84.583 1.825l.87-1.275c.23-.309.51-.602.839-.879.329-.283.618-.476.869-.579.157-.064.332-.097.523-.097.283 0 .507.074.671.223a.69.69 0 0 1 .257.54c0 .245-.05.412-.148.502a.933.933 0 0 1-.632.242c-.138 0-.286-.029-.444-.087-.31-.103-.517-.155-.622-.155-.158 0-.346.09-.563.27-.408.336-.895.983-1.462 1.942l.81 3.322c.125.508.23.814.316.917.086.097.171.145.257.145.138 0 .3-.074.484-.222a3.81 3.81 0 0 0 .928-1.159l.345.174a6.076 6.076 0 0 1-1.58 1.893c-.361.283-.668.424-.918.424-.368 0-.661-.202-.879-.608-.138-.25-.424-1.332-.858-3.245-1.027 1.745-1.85 2.869-2.469 3.37-.401.323-.79.483-1.165.483a1.08 1.08 0 0 1-.72-.28.727.727 0 0 1-.238-.57.733.733 0 0 1 .75-.744c.211.001.435.104.672.31.171.148.303.222.395.222.079 0 .18-.051.306-.154.31-.245.73-.773 1.264-1.584.533-.811.882-1.397 1.046-1.757-.408-1.565-.628-2.392-.661-2.482-.151-.419-.349-.715-.592-.889-.244-.173-.603-.26-1.077-.26a8.03 8.03 0 0 0-.523.019v-.348l2.636-.454Z"/></svg>
